source/img/svg/social-icon.svg

<svg width="50" height="50" viewBox="0 0 50 50" fill="none" xmlns="http://www.w3.org/2000/svg">
<path fill-rule="evenodd" clip-rule="evenodd" d="M26.7864 3.61627C24.8797 3.61627 23.0897 4.10594 21.5329 4.96575C21.1431 5.181 20.6527 5.03954 20.4374 4.64979C20.2222 4.26004 20.3636 3.76959 20.7534 3.55431C22.5427 2.56606 24.6002 2.00391 26.7864 2.00391C33.6877 2.00391 39.2824 7.59852 39.2824 14.4998C39.2824 21.4012 33.6877 26.9958 26.7864 26.9958C19.8851 26.9958 14.2905 21.4012 14.2905 14.4998C14.2905 12.0448 14.9993 9.75288 16.2237 7.82038C16.462 7.44427 16.9601 7.33256 17.3362 7.57086C17.7123 7.80917 17.824 8.30723 17.5857 8.68336C16.52 10.3654 15.9029 12.3593 15.9029 14.4998C15.9029 20.5106 20.7756 25.3835 26.7864 25.3835C32.7972 25.3835 37.6699 20.5106 37.6699 14.4998C37.6699 8.489 32.7972 3.61627 26.7864 3.61627Z" fill="#A62E41"/>
<path fill-rule="evenodd" clip-rule="evenodd" d="M46.4413 41.5937C47.3881 39.9387 47.8502 38.1443 47.8744 36.3708C47.8802 35.9268 48.2471 35.5705 48.6935 35.5751C49.1398 35.5797 49.4969 35.9433 49.4908 36.3872C49.4633 38.426 48.9315 40.4878 47.8458 42.3855C44.4192 48.376 36.7677 50.4847 30.7561 47.0955C24.7442 43.7066 22.6486 36.1028 26.0752 30.1124C29.5019 24.1218 37.1533 22.013 43.165 25.4022C45.3038 26.6078 46.9483 28.3487 48.0238 30.3605C48.2329 30.752 48.0831 31.2393 47.6888 31.4487C47.2944 31.658 46.805 31.5105 46.5956 31.1189C45.6596 29.3678 44.2292 27.853 42.3646 26.8018C37.1283 23.8499 30.4644 25.6866 27.4798 30.9041C24.4952 36.1216 26.3204 42.7443 31.5565 45.6962C36.7927 48.6478 43.4567 46.8112 46.4413 41.5937Z" fill="#A62E41"/>
<path fill-rule="evenodd" clip-rule="evenodd" d="M2.05497 33.9631C1.91391 35.8646 2.26986 37.6854 3.01222 39.3006C3.19807 39.705 3.0207 40.1838 2.61607 40.37C2.21143 40.5563 1.73274 40.3794 1.54688 39.975C0.693617 38.1185 0.285152 36.0258 0.446879 33.8454C0.957394 26.9631 6.95097 21.7917 13.8339 22.2948C20.7168 22.7981 25.8826 28.7852 25.3722 35.6677C24.8618 42.55 18.8681 47.7215 11.9852 47.2183C9.5367 47.0392 7.30328 46.1652 5.46651 44.8033C5.10903 44.5383 5.03447 44.0333 5.29997 43.6756C5.56545 43.3179 6.07047 43.2429 6.42795 43.5079C8.02663 44.6933 9.96961 45.4542 12.1044 45.6102C18.0993 46.0485 23.3195 41.5444 23.7641 35.55C24.2087 29.5556 19.7094 24.341 13.7146 23.9029C7.71982 23.4646 2.49961 27.9688 2.05497 33.9631Z" fill="#A62E41"/>
<path d="M30.1942 10.2441V7.68433H27.3875C26.059 7.68433 24.9819 8.7422 24.9819 10.0472V12.607H23.3782V14.9698H24.9819V22.4523H27.3875V14.9698H29.3869L29.7932 12.607H27.3875V10.6379C27.3875 10.4204 27.5671 10.2441 27.7886 10.2441H30.1942Z" fill="#A62E41"/>
<path fill-rule="evenodd" clip-rule="evenodd" d="M4.94604 32.1787C4.94604 30.3579 6.42217 28.8818 8.24307 28.8818H18.0697C19.8906 28.8818 21.3668 30.3579 21.3668 32.1787V37.7177C21.3668 39.5385 19.8906 41.0148 18.0697 41.0148H8.24307C6.42217 41.0148 4.94604 39.5385 4.94604 37.7177V32.1787ZM8.24307 30.4035C7.26259 30.4035 6.46775 31.1983 6.46775 32.1787V37.7177C6.46775 38.6981 7.26259 39.4929 8.24307 39.4929H18.0697C19.0502 39.4929 19.845 38.6981 19.845 37.7177V32.1787C19.845 31.1983 19.0502 30.4035 18.0697 30.4035H8.24307Z" fill="#A62E41"/>
<path fill-rule="evenodd" clip-rule="evenodd" d="M12.6423 33.4968V36.4014L14.9191 34.9491L12.6423 33.4968ZM11.1206 33.2656C11.1206 32.1643 12.3371 31.4972 13.2656 32.0895L15.905 33.7731C16.7647 34.3214 16.7647 35.5768 15.905 36.1252L13.2656 37.8087C12.3371 38.401 11.1206 37.7339 11.1206 36.6327V33.2656Z" fill="#A62E41"/>
<path fill-rule="evenodd" clip-rule="evenodd" d="M30.5696 34.2078C30.5696 31.6865 32.6135 29.6426 35.1348 29.6426H38.8862C41.4075 29.6426 43.4512 31.6865 43.4512 34.2078V37.959C43.4512 40.4803 41.4075 42.5242 38.8862 42.5242H35.1348C32.6135 42.5242 30.5696 40.4803 30.5696 37.959V34.2078ZM35.1348 31.1642C33.454 31.1642 32.0915 32.527 32.0915 34.2078V37.959C32.0915 39.6399 33.454 41.0026 35.1348 41.0026H38.8862C40.5671 41.0026 41.9296 39.6399 41.9296 37.959V34.2078C41.9296 32.527 40.5671 31.1642 38.8862 31.1642H35.1348Z" fill="#A62E41"/>
<path fill-rule="evenodd" clip-rule="evenodd" d="M37.0097 34.2243C35.9822 34.2243 35.1491 35.0572 35.1491 36.0847C35.1491 37.1124 35.9822 37.9453 37.0097 37.9453C38.0372 37.9453 38.8702 37.1124 38.8702 36.0847C38.8702 35.0572 38.0372 34.2243 37.0097 34.2243ZM33.6274 36.0847C33.6274 34.2168 35.1418 32.7026 37.0097 32.7026C38.8777 32.7026 40.392 34.2168 40.392 36.0847C40.392 37.9528 38.8777 39.467 37.0097 39.467C35.1418 39.467 33.6274 37.9528 33.6274 36.0847Z" fill="#A62E41"/>
<path d="M40.9859 32.6746C40.9859 32.9881 40.7315 33.2425 40.418 33.2425C40.1042 33.2425 39.8499 32.9881 39.8499 32.6746C39.8499 32.3608 40.1042 32.1064 40.418 32.1064C40.7315 32.1064 40.9859 32.3608 40.9859 32.6746Z" fill="#A62E41"/>
</svg>

<svg width="50" height="50" fill="none" xmlns="http://www.w3.org/2000/svg"><path fill-rule="evenodd" clip-rule="evenodd" d="M26.786 3.616c-1.906 0-3.696.49-5.253 1.35a.806.806 0 01-.78-1.412 12.443 12.443 0 016.033-1.55c6.902 0 12.496 5.595 12.496 12.496 0 6.901-5.594 12.496-12.496 12.496-6.9 0-12.496-5.595-12.496-12.496 0-2.455.71-4.747 1.934-6.68a.806.806 0 011.362.863 10.829 10.829 0 00-1.683 5.817c0 6.01 4.873 10.884 10.883 10.884 6.011 0 10.884-4.873 10.884-10.884S32.797 3.616 26.786 3.616z" fill="#A62E41"/><path fill-rule="evenodd" clip-rule="evenodd" d="M46.441 41.594a10.785 10.785 0 001.433-5.223.81.81 0 011.617.016c-.028 2.039-.56 4.1-1.645 5.998-3.427 5.991-11.078 8.1-17.09 4.71a12.402 12.402 0 01-4.68-16.983c3.426-5.99 11.077-8.099 17.089-4.71a12.38 12.38 0 014.859 4.958.81.81 0 01-1.428.758 10.775 10.775 0 00-4.231-4.316c-5.237-2.952-11.9-1.115-14.885 4.102a10.802 10.802 0 004.076 14.792c5.237 2.952 11.9 1.115 14.885-4.102z" fill="#A62E41"/><path fill-rule="evenodd" clip-rule="evenodd" d="M2.055 33.963a10.822 10.822 0 00.957 5.338.807.807 0 01-1.465.674 12.434 12.434 0 01-1.1-6.13c.51-6.882 6.504-12.053 13.387-11.55 6.883.503 12.049 6.49 11.538 13.373-.51 6.882-6.504 12.053-13.387 11.55a12.432 12.432 0 01-6.518-2.415.806.806 0 11.961-1.295 10.82 10.82 0 005.676 2.102c5.995.438 11.216-4.066 11.66-10.06.445-5.994-4.055-11.209-10.05-11.647C7.72 23.465 2.5 27.969 2.056 33.963z" fill="#A62E41"/><path d="M30.194 10.244v-2.56h-2.806c-1.329 0-2.406 1.058-2.406 2.363v2.56h-1.604v2.363h1.604v7.482h2.405V14.97h2l.406-2.363h-2.405v-1.97c0-.217.18-.393.4-.393h2.406z" fill="#A62E41"/><path fill-rule="evenodd" clip-rule="evenodd" d="M4.946 32.179a3.297 3.297 0 013.297-3.297h9.827a3.297 3.297 0 013.297 3.297v5.539a3.297 3.297 0 01-3.297 3.297H8.243a3.297 3.297 0 01-3.297-3.297v-5.54zm3.297-1.776c-.98 0-1.775.795-1.775 1.776v5.539c0 .98.795 1.775 1.775 1.775h9.827c.98 0 1.775-.795 1.775-1.775v-5.54c0-.98-.795-1.774-1.775-1.774H8.243z" fill="#A62E41"/><path fill-rule="evenodd" clip-rule="evenodd" d="M12.642 33.497V36.4l2.277-1.452-2.277-1.452zm-1.521-.231a1.395 1.395 0 012.145-1.176l2.639 1.683c.86.548.86 1.804 0 2.352l-2.64 1.684a1.395 1.395 0 01-2.144-1.176v-3.367zm19.449.942a4.565 4.565 0 014.565-4.565h3.751a4.565 4.565 0 014.565 4.565v3.751a4.565 4.565 0 01-4.565 4.565h-3.751a4.565 4.565 0 01-4.565-4.565v-3.751zm4.565-3.044a3.044 3.044 0 00-3.043 3.044v3.751a3.043 3.043 0 003.043 3.044h3.751a3.043 3.043 0 003.044-3.044v-3.751a3.044 3.044 0 00-3.044-3.044h-3.751z" fill="#A62E41"/><path fill-rule="evenodd" clip-rule="evenodd" d="M37.01 34.224a1.86 1.86 0 100 3.721 1.86 1.86 0 000-3.72zm-3.383 1.86a3.382 3.382 0 116.765.001 3.382 3.382 0 01-6.765 0z" fill="#A62E41"/><path d="M40.986 32.675a.568.568 0 11-1.136 0 .568.568 0 011.136 0z" fill="#A62E41"/></svg>
